<jittershader name='tml.gl.+n.glsl'>
 
<param name='tex0' type='int' default='0' />
<param name='offset' type='vec4' default='0. 0.000 0.000 0.' />
<language name='glsl' version='1.0'>
 
<bind param='tex0' program='fp' />
<bind param='offset' program='fp' />
<program name='vp' type='vertex' source='sh.passthru.xform.vp.glsl' />
<program name='fp' type='fragment' source='tml.gl.+n.glsl' />
</language> </jittershader>
